icons/linear-ele-office-tool-odometer.svg

<svg xmlns="http://www.w3.org/2000/svg" width="32px" height="32px" viewBox="0 0 32 32" version="1.1">
    <title>linear-ele-office-tool-odometer</title>
    <g id="linear-ele-office-tool-odometer" stroke-width="1" fill-rule="evenodd">
        <path d="M16,2 C23.7319865,2 30,8.2680135 30,16 C30,23.7319865 23.7319865,30 16,30 C8.2680135,30 2,23.7319865 2,16 C2,8.2680135 8.2680135,2 16,2 Z M16,4 C9.372583,4 4,9.372583 4,16 C4,22.627417 9.372583,28 16,28 C22.627417,28 28,22.627417 28,16 C28,9.372583 22.627417,4 16,4 Z M18.7940858,12.544221 C19.321948,12.7066401 19.6181981,13.2662237 19.455779,13.7940858 L17.6927717,19.5228561 C18.4820958,20.0632848 19,20.9711609 19,22 C19,23.6568542 17.6568542,25 16,25 C14.3431458,25 13,23.6568542 13,22 C13,20.4245519 14.2144027,19.1327427 15.7581756,19.0096051 L17.544221,13.2059142 C17.7066401,12.678052 18.2662237,12.3818019 18.7940858,12.544221 Z M16,21 C15.4477153,21 15,21.4477153 15,22 C15,22.5522847 15.4477153,23 16,23 C16.5522847,23 17,22.5522847 17,22 C17,21.4477153 16.5522847,21 16,21 Z M16,6 C21.5228475,6 26,10.4771525 26,16 C26,16.5522847 25.5522847,17 25,17 C24.4477153,17 24,16.5522847 24,16 C24,11.581722 20.418278,8 16,8 C11.581722,8 8,11.581722 8,16 C8,16.5522847 7.55228475,17 7,17 C6.44771525,17 6,16.5522847 6,16 C6,10.4771525 10.4771525,6 16,6 Z" id="&#24418;&#29366;" fill-rule="nonzero" />
    </g>
</svg>

<svg xmlns="http://www.w3.org/2000/svg" viewBox="0 0 32 32"><path fill="currentColor" d="M16 2c7.732 0 14 6.268 14 14s-6.268 14-14 14S2 23.732 2 16 8.268 2 16 2m0 2C9.373 4 4 9.373 4 16s5.373 12 12 12 12-5.373 12-12S22.627 4 16 4m2.794 8.544a1 1 0 0 1 .662 1.25l-1.763 5.729a3 3 0 1 1-1.935-.513l1.786-5.804a1 1 0 0 1 1.25-.662M16 21a1 1 0 1 0 0 2 1 1 0 0 0 0-2m0-15c5.523 0 10 4.477 10 10a1 1 0 0 1-2 0 8 8 0 1 0-16 0 1 1 0 0 1-2 0c0-5.523 4.477-10 10-10"/></svg>
